dist/svg/static/NFC-inactive-small.svg

<svg xmlns="http://www.w3.org/2000/svg" width="24" height="24" viewBox="0 0 24 24"><g fill="none" stroke="currentColor"><g stroke-miterlimit="10"><path d="M14.24 3.07c.619 1.097.695 1.21 1 2.371l.039-.033-.256-.735M14.592 13.32c.49-.545.776-1.208.92-1.82l-.02.018-.112.438M18.21 1.9l.269.655-.022.02c-.29-.883-.505-1.242-.957-2.075M17.5 15.5c1.342-2.473 1.998-4.885 1.921-7.613l-.021.028-.013 1.49M8.88 4.28c.48 1.164.721 2.4.721 3.635 0 0 0 1.371-.385 2.682l-.043.142c-.102.329-.207.603-.293.811l-.455-.4-.114-.102L2.58 6 3 11.5"/></g><path d="M20.65 22.85c-.455.394-1.038.651-1.64.65-1.428-.089-2.513-1.148-2.424-2.576A2.59 2.59 0 0 1 19.01 18.5c.415-.001.825.102 1.19.3M10.5 24v-5.5H14M14 21.5h-3.467M7.5 18.796v4.054L5.51 21M3.5 24l.027-.723-.027.025V24M1.375 22.625L22.875 1"/></g></svg>

<?xml version="1.0" encoding="UTF-8" standalone="no"?>
<svg width="24px" height="25px" viewBox="0 0 24 25" version="1.1" xmlns="http://www.w3.org/2000/svg" xmlns:xlink="http://www.w3.org/1999/xlink">
    <!-- Generator: sketchtool 46.2 (44496) - http://www.bohemiancoding.com/sketch -->
    <title>nfc-inactive-small</title>
    <desc>Created with sketchtool.</desc>
    <defs></defs>
    <g id="icons-published" stroke="none" stroke-width="1" fill="none" fill-rule="evenodd">
        <g id="briefing" transform="translate(-2372.000000, -1050.000000)"></g>
        <g id="nfc-inactive-small" stroke="#000000">
            <path d="M14.2,3.1 C14.8,4.2 14.9,4.3 15.2,5.5 L15.2,5.5 L15,4.7 M14.6,13.3 C15.1,12.8 15.4,12.1 15.5,11.5 L15.5,11.5 L15.4,12 M18.2,1.9 L18.5,2.6 L18.5,2.6 C18.2,1.7 18,1.4 17.5,0.5 M17.5,15.5 C18.8,13 19.5,10.6 19.4,7.9 L19.4,7.9 L19.4,9.4 M8.9,4.3 C9.4,5.5 9.6,6.7 9.6,7.9 C9.6,7.9 9.6,9.3 9.2,10.6 L9.2,10.7 C9.1,11 9,11.3 8.9,11.5 L8.4,11.1 L8.3,11 L2.6,6 L3,11.5" id="Shape"></path>
            <path d="M20.6,22.9 C20.1,23.3 19.6,23.6 19,23.5 C17.6,23.4 16.5,22.4 16.6,20.9 C16.7,19.6 17.7,18.6 19,18.5 C19.4,18.5 19.8,18.6 20.2,18.8 M10.5,24 L10.5,18.5 L14,18.5 M14,21.5 L10.5,21.5 M7.5,18.8 L7.5,22.9 L5.5,21.1 M3.5,24 L3.5,23.3 L3.5,23.3 L3.5,24 M1.4,22.6 L22.9,1" id="Shape"></path>
        </g>
    </g>
</svg>
